(HoleTest.nc)
(T1  D=3.2 CR=1 - ZMIN=-19 - bullnose end mill)
G90 G94
G17
G21
G28 G91 Z0
G90

(Circular1)
T1
S5000 M3
G54
M8
G0 X24.9 Y125.32
Z15
Z1
G1 Z-0.68 F1000
G18 G3 X24.58 Z-1 I-0.32 K0
G1 X24.42
G17 G3 X24.1 Y125 I0 J-0.32
X25.9 Y125 I0.9 J0
X24.1 Y125 I-0.9 J0
X24.42 Y124.68 I0.32 J0
G1 X24.58
G18 G2 X24.9 Z-0.68 I0 K0.32
G0 Z5
Y125.32
Z0
G1 Z-1.68 F1000
G3 X24.58 Z-2 I-0.32 K0
G1 X24.42
G17 G3 X24.1 Y125 I0 J-0.32
X25.9 Y125 I0.9 J0
X24.1 Y125 I-0.9 J0
X24.42 Y124.68 I0.32 J0
G1 X24.58
G18 G2 X24.9 Z-1.68 I0 K0.32
G0 Z5
Y125.32
Z-1
G1 Z-2.68 F1000
G3 X24.58 Z-3 I-0.32 K0
G1 X24.42
G17 G3 X24.1 Y125 I0 J-0.32
X25.9 Y125 I0.9 J0
X24.1 Y125 I-0.9 J0
X24.42 Y124.68 I0.32 J0
G1 X24.58
G18 G2 X24.9 Z-2.68 I0 K0.32
G0 Z5
Y125.32
Z-2
G1 Z-3.68 F1000
G3 X24.58 Z-4 I-0.32 K0
G1 X24.42
G17 G3 X24.1 Y125 I0 J-0.32
X25.9 Y125 I0.9 J0
X24.1 Y125 I-0.9 J0
X24.42 Y124.68 I0.32 J0
G1 X24.58
G18 G2 X24.9 Z-3.68 I0 K0.32
G0 Z5
Y125.32
Z-3
G1 Z-4.68 F1000
G3 X24.58 Z-5 I-0.32 K0
G1 X24.42
G17 G3 X24.1 Y125 I0 J-0.32
X25.9 Y125 I0.9 J0
X24.1 Y125 I-0.9 J0
X24.42 Y124.68 I0.32 J0
G1 X24.58
G18 G2 X24.9 Z-4.68 I0 K0.32
G0 Z5
Y125.32
Z-4
G1 Z-5.68 F1000
G3 X24.58 Z-6 I-0.32 K0
G1 X24.42
G17 G3 X24.1 Y125 I0 J-0.32
X25.9 Y125 I0.9 J0
X24.1 Y125 I-0.9 J0
X24.42 Y124.68 I0.32 J0
G1 X24.58
G18 G2 X24.9 Z-5.68 I0 K0.32
G0 Z5
Y125.32
Z-5
G1 Z-6.68 F1000
G3 X24.58 Z-7 I-0.32 K0
G1 X24.42
G17 G3 X24.1 Y125 I0 J-0.32
X25.9 Y125 I0.9 J0
X24.1 Y125 I-0.9 J0
X24.42 Y124.68 I0.32 J0
G1 X24.58
G18 G2 X24.9 Z-6.68 I0 K0.32
G0 Z5
Y125.32
Z-6
G1 Z-7.68 F1000
G3 X24.58 Z-8 I-0.32 K0
G1 X24.42
G17 G3 X24.1 Y125 I0 J-0.32
X25.9 Y125 I0.9 J0
X24.1 Y125 I-0.9 J0
X24.42 Y124.68 I0.32 J0
G1 X24.58
G18 G2 X24.9 Z-7.68 I0 K0.32
G0 Z5
Y125.32
Z-7
G1 Z-8.68 F1000
G3 X24.58 Z-9 I-0.32 K0
G1 X24.42
G17 G3 X24.1 Y125 I0 J-0.32
X25.9 Y125 I0.9 J0
X24.1 Y125 I-0.9 J0
X24.42 Y124.68 I0.32 J0
G1 X24.58
G18 G2 X24.9 Z-8.68 I0 K0.32
G0 Z5
Y125.32
Z-8
G1 Z-9.68 F1000
G3 X24.58 Z-10 I-0.32 K0
G1 X24.42
G17 G3 X24.1 Y125 I0 J-0.32
X25.9 Y125 I0.9 J0
X24.1 Y125 I-0.9 J0
X24.42 Y124.68 I0.32 J0
G1 X24.58
G18 G2 X24.9 Z-9.68 I0 K0.32
G0 Z5
Y125.32
Z-9
G1 Z-10.68 F1000
G3 X24.58 Z-11 I-0.32 K0
G1 X24.42
G17 G3 X24.1 Y125 I0 J-0.32
X25.9 Y125 I0.9 J0
X24.1 Y125 I-0.9 J0
X24.42 Y124.68 I0.32 J0
G1 X24.58
G18 G2 X24.9 Z-10.68 I0 K0.32
G0 Z5
Y125.32
Z-10
G1 Z-11.68 F1000
G3 X24.58 Z-12 I-0.32 K0
G1 X24.42
G17 G3 X24.1 Y125 I0 J-0.32
X25.9 Y125 I0.9 J0
X24.1 Y125 I-0.9 J0
X24.42 Y124.68 I0.32 J0
G1 X24.58
G18 G2 X24.9 Z-11.68 I0 K0.32
G0 Z5
Y125.32
Z-11
G1 Z-12.68 F1000
G3 X24.58 Z-13 I-0.32 K0
G1 X24.42
G17 G3 X24.1 Y125 I0 J-0.32
X25.9 Y125 I0.9 J0
X24.1 Y125 I-0.9 J0
X24.42 Y124.68 I0.32 J0
G1 X24.58
G18 G2 X24.9 Z-12.68 I0 K0.32
G0 Z5
Y125.32
Z-12
G1 Z-13.68 F1000
G3 X24.58 Z-14 I-0.32 K0
G1 X24.42
G17 G3 X24.1 Y125 I0 J-0.32
X25.9 Y125 I0.9 J0
X24.1 Y125 I-0.9 J0
X24.42 Y124.68 I0.32 J0
G1 X24.58
G18 G2 X24.9 Z-13.68 I0 K0.32
G0 Z5
Y125.32
Z-13
G1 Z-14.68 F1000
G3 X24.58 Z-15 I-0.32 K0
G1 X24.42
G17 G3 X24.1 Y125 I0 J-0.32
X25.9 Y125 I0.9 J0
X24.1 Y125 I-0.9 J0
X24.42 Y124.68 I0.32 J0
G1 X24.58
G18 G2 X24.9 Z-14.68 I0 K0.32
G0 Z5
Y125.32
Z-14
G1 Z-15.68 F1000
G3 X24.58 Z-16 I-0.32 K0
G1 X24.42
G17 G3 X24.1 Y125 I0 J-0.32
X25.9 Y125 I0.9 J0
X24.1 Y125 I-0.9 J0
X24.42 Y124.68 I0.32 J0
G1 X24.58
G18 G2 X24.9 Z-15.68 I0 K0.32
G0 Z5
Y125.32
Z-15
G1 Z-16.68 F1000
G3 X24.58 Z-17 I-0.32 K0
G1 X24.42
G17 G3 X24.1 Y125 I0 J-0.32
X25.9 Y125 I0.9 J0
X24.1 Y125 I-0.9 J0
X24.42 Y124.68 I0.32 J0
G1 X24.58
G18 G2 X24.9 Z-16.68 I0 K0.32
G0 Z5
Y125.32
Z-16
G1 Z-17.68 F1000
G3 X24.58 Z-18 I-0.32 K0
G1 X24.42
G17 G3 X24.1 Y125 I0 J-0.32
X25.9 Y125 I0.9 J0
X24.1 Y125 I-0.9 J0
X24.42 Y124.68 I0.32 J0
G1 X24.58
G18 G2 X24.9 Z-17.68 I0 K0.32
G0 Z5
Y125.32
Z-17
G1 Z-18.68 F1000
G3 X24.58 Z-19 I-0.32 K0
G1 X24.42
G17 G3 X24.1 Y125 I0 J-0.32
X25.9 Y125 I0.9 J0
X24.1 Y125 I-0.9 J0
X24.42 Y124.68 I0.32 J0
G1 X24.58
G18 G2 X24.9 Z-18.68 I0 K0.32
G0 Z15
G17
M9
G28 G91 Z0
G90
G28 G91 X0 Y0
G90
M5
M30
