(HoleTest)
(T1  D=3.2 CR=1 - ZMIN=-29 - bullnose end mill)
G90 G94
G17
G21
G28 G91 Z0
G90

(Circular1)
T1
S5000 M3
G54
M8
G0 X-45.1 Y-74.68
Z15
Z-9
G1 Z-10.68 F1000
G18 G3 X-45.42 Z-11 I-0.32 K0
G1 X-45.58
G17 G3 X-45.9 Y-75 I0 J-0.32
X-44.1 Y-75 I0.9 J0
X-45.9 Y-75 I-0.9 J0
X-45.58 Y-75.32 I0.32 J0
G1 X-45.42
G18 G2 X-45.1 Z-10.68 I0 K0.32
G0 Z5
Y-74.68
Z-10
G1 Z-11.68 F1000
G3 X-45.42 Z-12 I-0.32 K0
G1 X-45.58
G17 G3 X-45.9 Y-75 I0 J-0.32
X-44.1 Y-75 I0.9 J0
X-45.9 Y-75 I-0.9 J0
X-45.58 Y-75.32 I0.32 J0
G1 X-45.42
G18 G2 X-45.1 Z-11.68 I0 K0.32
G0 Z5
Y-74.68
Z-11
G1 Z-12.68 F1000
G3 X-45.42 Z-13 I-0.32 K0
G1 X-45.58
G17 G3 X-45.9 Y-75 I0 J-0.32
X-44.1 Y-75 I0.9 J0
X-45.9 Y-75 I-0.9 J0
X-45.58 Y-75.32 I0.32 J0
G1 X-45.42
G18 G2 X-45.1 Z-12.68 I0 K0.32
G0 Z5
Y-74.68
Z-12
G1 Z-13.68 F1000
G3 X-45.42 Z-14 I-0.32 K0
G1 X-45.58
G17 G3 X-45.9 Y-75 I0 J-0.32
X-44.1 Y-75 I0.9 J0
X-45.9 Y-75 I-0.9 J0
X-45.58 Y-75.32 I0.32 J0
G1 X-45.42
G18 G2 X-45.1 Z-13.68 I0 K0.32
G0 Z5
Y-74.68
Z-13
G1 Z-14.68 F1000
G3 X-45.42 Z-15 I-0.32 K0
G1 X-45.58
G17 G3 X-45.9 Y-75 I0 J-0.32
X-44.1 Y-75 I0.9 J0
X-45.9 Y-75 I-0.9 J0
X-45.58 Y-75.32 I0.32 J0
G1 X-45.42
G18 G2 X-45.1 Z-14.68 I0 K0.32
G0 Z5
Y-74.68
Z-14
G1 Z-15.68 F1000
G3 X-45.42 Z-16 I-0.32 K0
G1 X-45.58
G17 G3 X-45.9 Y-75 I0 J-0.32
X-44.1 Y-75 I0.9 J0
X-45.9 Y-75 I-0.9 J0
X-45.58 Y-75.32 I0.32 J0
G1 X-45.42
G18 G2 X-45.1 Z-15.68 I0 K0.32
G0 Z5
Y-74.68
Z-15
G1 Z-16.68 F1000
G3 X-45.42 Z-17 I-0.32 K0
G1 X-45.58
G17 G3 X-45.9 Y-75 I0 J-0.32
X-44.1 Y-75 I0.9 J0
X-45.9 Y-75 I-0.9 J0
X-45.58 Y-75.32 I0.32 J0
G1 X-45.42
G18 G2 X-45.1 Z-16.68 I0 K0.32
G0 Z5
Y-74.68
Z-16
G1 Z-17.68 F1000
G3 X-45.42 Z-18 I-0.32 K0
G1 X-45.58
G17 G3 X-45.9 Y-75 I0 J-0.32
X-44.1 Y-75 I0.9 J0
X-45.9 Y-75 I-0.9 J0
X-45.58 Y-75.32 I0.32 J0
G1 X-45.42
G18 G2 X-45.1 Z-17.68 I0 K0.32
G0 Z5
Y-74.68
Z-17
G1 Z-18.68 F1000
G3 X-45.42 Z-19 I-0.32 K0
G1 X-45.58
G17 G3 X-45.9 Y-75 I0 J-0.32
X-44.1 Y-75 I0.9 J0
X-45.9 Y-75 I-0.9 J0
X-45.58 Y-75.32 I0.32 J0
G1 X-45.42
G18 G2 X-45.1 Z-18.68 I0 K0.32
G0 Z5
Y-74.68
Z-18
G1 Z-19.68 F1000
G3 X-45.42 Z-20 I-0.32 K0
G1 X-45.58
G17 G3 X-45.9 Y-75 I0 J-0.32
X-44.1 Y-75 I0.9 J0
X-45.9 Y-75 I-0.9 J0
X-45.58 Y-75.32 I0.32 J0
G1 X-45.42
G18 G2 X-45.1 Z-19.68 I0 K0.32
G0 Z5
Y-74.68
Z-19
G1 Z-20.68 F1000
G3 X-45.42 Z-21 I-0.32 K0
G1 X-45.58
G17 G3 X-45.9 Y-75 I0 J-0.32
X-44.1 Y-75 I0.9 J0
X-45.9 Y-75 I-0.9 J0
X-45.58 Y-75.32 I0.32 J0
G1 X-45.42
G18 G2 X-45.1 Z-20.68 I0 K0.32
G0 Z5
Y-74.68
Z-20
G1 Z-21.68 F1000
G3 X-45.42 Z-22 I-0.32 K0
G1 X-45.58
G17 G3 X-45.9 Y-75 I0 J-0.32
X-44.1 Y-75 I0.9 J0
X-45.9 Y-75 I-0.9 J0
X-45.58 Y-75.32 I0.32 J0
G1 X-45.42
G18 G2 X-45.1 Z-21.68 I0 K0.32
G0 Z5
Y-74.68
Z-21
G1 Z-22.68 F1000
G3 X-45.42 Z-23 I-0.32 K0
G1 X-45.58
G17 G3 X-45.9 Y-75 I0 J-0.32
X-44.1 Y-75 I0.9 J0
X-45.9 Y-75 I-0.9 J0
X-45.58 Y-75.32 I0.32 J0
G1 X-45.42
G18 G2 X-45.1 Z-22.68 I0 K0.32
G0 Z5
Y-74.68
Z-22
G1 Z-23.68 F1000
G3 X-45.42 Z-24 I-0.32 K0
G1 X-45.58
G17 G3 X-45.9 Y-75 I0 J-0.32
X-44.1 Y-75 I0.9 J0
X-45.9 Y-75 I-0.9 J0
X-45.58 Y-75.32 I0.32 J0
G1 X-45.42
G18 G2 X-45.1 Z-23.68 I0 K0.32
G0 Z5
Y-74.68
Z-23
G1 Z-24.68 F1000
G3 X-45.42 Z-25 I-0.32 K0
G1 X-45.58
G17 G3 X-45.9 Y-75 I0 J-0.32
X-44.1 Y-75 I0.9 J0
X-45.9 Y-75 I-0.9 J0
X-45.58 Y-75.32 I0.32 J0
G1 X-45.42
G18 G2 X-45.1 Z-24.68 I0 K0.32
G0 Z5
Y-74.68
Z-24
G1 Z-25.68 F1000
G3 X-45.42 Z-26 I-0.32 K0
G1 X-45.58
G17 G3 X-45.9 Y-75 I0 J-0.32
X-44.1 Y-75 I0.9 J0
X-45.9 Y-75 I-0.9 J0
X-45.58 Y-75.32 I0.32 J0
G1 X-45.42
G18 G2 X-45.1 Z-25.68 I0 K0.32
G0 Z5
Y-74.68
Z-25
G1 Z-26.68 F1000
G3 X-45.42 Z-27 I-0.32 K0
G1 X-45.58
G17 G3 X-45.9 Y-75 I0 J-0.32
X-44.1 Y-75 I0.9 J0
X-45.9 Y-75 I-0.9 J0
X-45.58 Y-75.32 I0.32 J0
G1 X-45.42
G18 G2 X-45.1 Z-26.68 I0 K0.32
G0 Z5
Y-74.68
Z-26
G1 Z-27.68 F1000
G3 X-45.42 Z-28 I-0.32 K0
G1 X-45.58
G17 G3 X-45.9 Y-75 I0 J-0.32
X-44.1 Y-75 I0.9 J0
X-45.9 Y-75 I-0.9 J0
X-45.58 Y-75.32 I0.32 J0
G1 X-45.42
G18 G2 X-45.1 Z-27.68 I0 K0.32
G0 Z5
Y-74.68
Z-27
G1 Z-28.68 F1000
G3 X-45.42 Z-29 I-0.32 K0
G1 X-45.58
G17 G3 X-45.9 Y-75 I0 J-0.32
X-44.1 Y-75 I0.9 J0
X-45.9 Y-75 I-0.9 J0
X-45.58 Y-75.32 I0.32 J0
G1 X-45.42
G18 G2 X-45.1 Z-28.68 I0 K0.32
G0 Z15
G17
M9
G28 G91 Z0
G90
G28 G91 X0 Y0
G90
M5
M30
